source/img/world-icon.svg

<svg width="145" height="110" viewBox="0 0 145 110" fill="none" xmlns="http://www.w3.org/2000/svg">
<path d="M143.71 55.1391C148.542 72.9401 139.446 84.5249 122.392 98.3702C116.139 103.739 98.4021 113.346 77.4823 108.825C51.3325 103.174 61.8495 91.0237 43.0898 74.0704C24.3302 57.117 41.3844 16.994 61.8495 8.23479C82.3145 -0.524445 106.19 -4.76278 122.392 8.23479C138.593 21.2324 138.878 37.3381 143.71 55.1391Z" fill="#F4FBFF"/>
<mask id="mask0" mask-type="alpha" maskUnits="userSpaceOnUse" x="0" y="10" width="94" height="94">
<circle cx="47" cy="57" r="47" fill="#AAF0D1"/>
</mask>
<g mask="url(#mask0)">
<circle cx="48.7154" cy="58.7153" r="50.7737" fill="#AAF0D1"/>
<path d="M76.5327 26.8364C73.102 24.0919 72.0728 18.9459 72.759 15.8583C84.7663 18.2597 95.4013 39.5298 97.1166 52.2232C98.8319 64.9167 91.9706 80.0116 88.883 85.8437C86.4129 90.5094 79.6202 95.5639 76.5327 97.5079C77.2188 98.4228 77.9735 99.4977 75.5035 96.4787C72.4159 92.705 78.591 84.1283 79.2772 81.7269C79.9633 79.3254 93.3429 68.3473 82.3648 64.9167C71.3867 61.486 72.0729 57.3692 68.9853 50.1648C65.8977 42.9605 76.5327 36.7853 76.8758 36.0992C77.2189 35.413 79.9634 29.5809 76.5327 26.8364Z" fill="#FFC7DB"/>
<path d="M39.4816 24.778C60.4086 23.0626 58.6933 14.1429 59.3794 10.7123C58.0072 10.1405 53.7531 8.92833 47.7151 8.65388C40.1677 8.31081 30.9049 11.3984 23.7005 14.8291C16.4962 18.2597 9.97795 27.5225 6.54729 30.267C3.11663 33.0115 0.372106 45.705 0.715172 47.0772C1.05824 48.4495 11.3502 55.9969 16.4962 59.7707C21.6422 63.5444 17.1823 68.3473 17.5254 74.1794C17.8685 80.0115 25.4159 83.7853 26.7882 88.5882C27.886 92.4305 24.7298 97.2792 23.0144 99.2232C27.0169 100.71 35.0904 103.546 35.3648 102.997C35.7079 102.311 35.3648 97.1648 48.0582 94.4203C60.7517 91.6758 61.7809 86.8729 62.467 81.0407C63.1531 75.2086 52.5181 73.4933 48.0582 71.0918C43.5984 68.6904 44.6275 63.8875 42.2261 61.486C34.3059 53.5657 30.5619 55.9969 25.0728 55.3108C19.5838 54.6247 16.4962 47.7634 16.1531 46.3911C14.9767 41.6852 19.9269 38.1575 14.7809 37.4714C9.63492 36.7853 17.1824 21.0042 20.9561 31.2962C23.9751 39.5298 26.7882 38.8437 27.8174 37.4714C31.5911 31.6393 31.2481 25.4528 39.4816 24.778Z" fill="#FFC7DB"/>
<circle cx="35" cy="78" r="6" fill="#FF689E"/>
</g>
</svg>

<svg width="145" height="110" fill="none" xmlns="http://www.w3.org/2000/svg"><path d="M143.71 55.14c4.832 17.8-4.264 29.385-21.318 43.23-6.253 5.369-23.99 14.976-44.91 10.455-26.15-5.651-15.633-17.801-34.392-34.755-18.76-16.953-1.706-57.076 18.76-65.835 20.464-8.76 44.34-12.998 60.542 0 16.201 12.997 16.486 29.103 21.318 46.904z" fill="#F4FBFF"/><mask id="a" maskUnits="userSpaceOnUse" x="0" y="10" width="94" height="94"><circle cx="47" cy="57" r="47" fill="#AAF0D1"/></mask><g mask="url(#a)"><circle cx="48.715" cy="58.715" r="50.774" fill="#AAF0D1"/><path d="M76.533 26.836c-3.431-2.744-4.46-7.89-3.774-10.978C84.766 18.26 95.401 39.53 97.117 52.223c1.715 12.694-5.146 27.789-8.234 33.62-2.47 4.666-9.263 9.72-12.35 11.665.686.915 1.44 1.99-1.03-1.03-3.087-3.773 3.088-12.35 3.774-14.751.686-2.402 14.066-13.38 3.088-16.81-10.978-3.431-10.292-7.548-13.38-14.752-3.087-7.204 7.548-13.38 7.89-14.066.344-.686 3.088-6.518-.342-9.263zm-37.051-2.058c20.927-1.715 19.211-10.635 19.897-14.066-1.372-.572-5.626-1.784-11.664-2.058-7.547-.343-16.81 2.744-24.015 6.175-7.204 3.43-13.722 12.694-17.153 15.438C3.117 33.011.372 45.705.715 47.077c.343 1.373 10.635 8.92 15.781 12.694 5.146 3.773.686 8.576 1.03 14.408.343 5.832 7.89 9.606 9.262 14.41 1.098 3.841-2.058 8.69-3.774 10.634 4.003 1.487 12.076 4.323 12.35 3.774.344-.686 0-5.832 12.694-8.577 12.694-2.744 13.723-7.547 14.409-13.38.686-5.831-9.949-7.547-14.409-9.948-4.46-2.402-3.43-7.204-5.832-9.606-7.92-7.92-11.664-5.49-17.153-6.175-5.49-.686-8.577-7.548-8.92-8.92-1.176-4.706 3.774-8.233-1.372-8.92-5.146-.686 2.401-16.467 6.175-6.175 3.02 8.234 5.832 7.548 6.861 6.175 3.774-5.832 3.431-12.018 11.665-12.693z" fill="#FFC7DB"/><circle cx="35" cy="78" r="6" fill="#FF689E"/></g></svg>
